X:1
T:Title
%%score { ( 1 4 ) | ( 2 3 ) }
L:1/8
Q:1/4=108
M:4/4
K:F
V:1 treble nm="Grand Piano"
V:4 treble 
V:2 bass 
V:3 bass 
V:1
 [CFA]2 [CFc]2 [CEG]2 [Ec]2 | F3 [EG] A4 | B2 A2 A2 [DG]2 | F2 EF [CEG]4 | %4
w: W.~H.~Doane * * *||||
 [CFA]2 [CFc]2 [CEG]2 [Ec]2 | [A,F]3 [CEG] [CFA]4 | [DFB]3 [CFA] [CDA]2 [B,DG]2 | %7
w: |||
 [A,CF]2 .[G,CE]2 [A,CF]4 | [CEG]3 [DFG] [CEG]2 [CGc]2 | z4 d4 | [CG]3 [=B,FG] [CEG]2 [EGc]G | %11
w: ||||
 e3 d [CEc]4 | [CFA]2 [CFc]2 [CEG]2 [Ec]2 | [A,F]3 [CEG] [CFA]4 | [DFB]3 [CFA] [CDA]2 [B,DG]2 | %15
w: ||||
 [A,CF]2 .[G,CE]2 [A,CF]4 |] %16
w: |
V:2
 F,2 A,,2 C,2 [C,B,]2 | [D,A,]3 [C,C] [F,CF]4 | [F,DF]2 [F,CF]2 [F,CF]2 [B,,B,]2 | %3
 [C,A,C]2 G,A, C,4 | F,2 A,,2 C,2 [C,B,]2 | D,3 C, F,4 | F,3 F, B,,2 B,,2 | C,2 z C F,4 | %8
 C,3 =B,, C,2 E,2 | [G,DF]3 [G,CE] [=B,G]4 | E,3 D, C,2 z [CE] | [G,CG]3 [G,=B,F][K:bass] z2 B2 | %12
 F,2 A,,2 C,2 [C,B,]2 | D,3 C, F,4 | F,3 F, B,,2 B,,2 | C,2 z B, F,4 |] %16
V:3
 x8 | x8 | x8 | z2 [C,C]2 z4 | x8 | x8 | x8 | z2 C,2 z4 | x8 | z4 G,2 z2 | z4 z2 C,2 | %11
 z4[K:bass] C,4 | x8 | x8 | x8 | z2 C,2 z4 |] %16
V:4
 x8 | x8 | x8 | x8 | x8 | x8 | x8 | x8 | x8 | =B3 c z2 F,2 | x8 | x8 | x8 | x8 | x8 | x8 |] %16

